svg/color/ustb.svg

<svg width="32" height="32" viewBox="0 0 32 32" fill="none" xmlns="http://www.w3.org/2000/svg">
<rect width="32" height="32" rx="16" fill="#152921"/>
<path d="M10.2383 18.1311V14.323C10.2383 14.0677 10.4085 13.8975 10.6638 13.8975H14.1021V10H10.5617C8.12765 10 6 11.8892 6 14.3911V18.1992C6 20.6841 7.8383 22.381 10.2894 22.381C11.8383 22.381 13.2511 21.6712 14.7319 20.2416L20.7574 14.3698C21.0128 14.1145 21.2 13.8975 21.4213 13.8975C21.6255 13.8975 21.7617 14.0635 21.7617 14.2677V18.058C21.7617 18.3132 21.5914 18.4834 21.3362 18.4834H17.8979V22.381H21.4553C23.8724 22.381 26 20.4918 26 17.9729V14.1996C26 11.7147 24.1617 10 21.7106 10C20.1788 10 18.749 10.7276 17.2681 12.1572L11.2425 18.029C10.9872 18.2843 10.8 18.4834 10.5787 18.4834C10.3745 18.4834 10.2383 18.3354 10.2383 18.1311Z" fill="white"/>
</svg>

<svg xmlns="http://www.w3.org/2000/svg" width="32" height="32" fill="none" viewBox="0 0 32 32"><rect width="32" height="32" fill="#152921" rx="16"/><path fill="#fff" d="M10.238 18.131v-3.808c0-.255.17-.425.426-.425h3.438V10h-3.54C8.128 10 6 11.89 6 14.391V18.2c0 2.485 1.838 4.182 4.29 4.182 1.548 0 2.961-.71 4.442-2.14l6.025-5.871c.256-.255.443-.472.664-.472.204 0 .34.165.34.37v3.79c0 .255-.17.425-.425.425h-3.438v3.898h3.557c2.417 0 4.545-1.89 4.545-4.408V14.2c0-2.485-1.838-4.2-4.29-4.2-1.531 0-2.961.728-4.442 2.157l-6.026 5.872c-.255.255-.442.454-.663.454-.205 0-.34-.148-.34-.352"/></svg>
